X: 1189
T: Kalb-i Sevdazedeler...
C: Selânikli Ahmed Bey
O: Turkey
F: http://compmusic.upf.edu/node/140
N: kurdilihicazkar--sarki--agiraksak--kalb-i_sevdazedeler--selanikli_ahmed_bey
N: makam= kurdilihicazkar
N: form= sarki
N: usul= agiraksak = 9/4
M: 9/4
L: 1/16
K: C _B _e _A 
Q: 1/4=66
%%MIDI tuningsystem comma53
g4 e3/2d/c2 d4 B3/2A/G2 c4 BAAG G4 gf_1/4eg f4  | \
w:  ARANAĞME  | 
_1/4ef2f f2f2 fed2 b=ag2 gf2e feed d4 cdef g4  | 
w:   | 
cd_1/4ef gfg2 Bcde fef2 Bcde f2g2 f2_e2 d2c2 B2A2  | 
w:   | 
GAGA GAGF g4 fedc Bc2B BAAG G4 cd_1/4ef g4  | 
w:   | 
g4 e3/2d/c2 d4 B3/2A/G2 c4 BAAG G4 gf_1/4eg f4  | \
w:  ARANAĞME  | 
_1/4ef2f f2f2 fed2 b=ag2 gf2e feed d4 cdef g4  | 
w:   | 
cd_1/4ef gfg2 Bcde fef2 Bcde f2g2 f2_e2 d2c2 B2A2  | 
w:   | 
GAGA GAGF g4 fedc Bc2B BAAG G8 z4  | 
w:   | 
g3a gf_1/4ef g2f4g2 g8 g12  | g2=ag f2_1/4e2 d2c2 a2gf f3e e2{f}ed d6c2 d3/2f/ed  | 
w:  SAZ *  *  *  *  *  *  Kalb_ i  sev dâ  |  *  *  *  *  *  *  *  ze de *  ler  *  *  *  *  *  âh   | 
d8 d2{_1/4e}dc _1/4B2c2 d2e2 f2g2 a2g2 f2_e2 d2c2  | \
w:  *  *  *  *  *  i le  da *  *  *  im   | 
z2a2 g2f2 f3e e2{f}ed d8 g2_7/8a_1/4b agf2 _1/4e2f2  | 
w:  in *  *  *  *  *  *  *  *  ler   SAZ  | 
gf_1/4ed cdef g4 f2g2 g8 f2g2 a2{b}ag g3f  | \
w:  *  *  *  *  *  *  *  *  *  Bir_ a çık  yâ  | 
f3e e2d2 d3g g2{a}gf f3e e2{f}ed d6c2 d3/2f/ed  | 
w:  *  *  *  *  *  *  re *  ye  *  dok *  *  *  *  *  tor   | 
d2_1/4e2 f2g6 f2g2 g3f f3e e3d d3c c4  | \
w:  *  *  *  *  vu ru lur  *  *  *  mu   | 
(3B2c2d2 (3e2d2c2 B3A A2{B}AG G8 g2_7/8a_1/4b agf2 _1/4e2f2  | 
w:  neş *  *  *  *  *  *  *  *  *  *  *  ter   SAZ  | 
gf_1/4ed cdef g4 f2g2 g8 f2g2 a2{b}ag g3f  | \
w:  *  *  *  *  *  *  *  *  *  Bir_ a çık  yâ  | 
f3e e2d2 d3g g2{a}gf f3e e2{f}ed d6c2 d3/2f/ed  | 
w:  *  *  *  *  *  *  re *  ye  *  dok *  *  *  *  *  tor   | 
d2_1/4e2 f2g6 f2g2 g3f f3e e3d d3c c4  | \
w:  *  *  *  *  vu ru lur  *  *  *  mu   | 
(3B2c2d2 (3e2d2c2 B3A A2{B}AG G8 d2ef edc2 _1/4B2c2  | 
w:  neş *  *  *  *  *  *  *  *  *  *  *  ter   SAZ  | 
d3e dc_1/4Bc d2c4d2 d6c2 d2_1/4e2 f2g2 =a2b2  | \
w:  *  *  *  *  *  *  *  Â şı kın  *  zahm_  | 
=a2g2 f2e2 d2c2 a2gf f3e e3d d6c2 d3/2f/ed  | 
w:  *  *  *  *  *  *  i  de *  rû *  *  *  nu   | 
d3e f2g2 =a4 g2a2 a8 b3a g2f2 e2d2  | \
w:  *  *  *  *  *  e ze lî den   | 
z2a2 g2f2 f3e e2{f}ed d8 d2ef edc2 _1/4B2c2  | 
w:  in *  *  *  *  *  *  *  *  ler   SAZ  | 
d3e dc_1/4Bc d2c4d2 d6c2 d2_1/4e2 f2g2 =a2b2  | \
w:  *  *  *  *  *  *  *  Â şı kın  *  zahm_  | 
=a2g2 f2e2 d2c2 a2gf f3e e3d d6c2 d3/2f/ed  | 
w:  *  *  *  *  *  *  i  de *  rû *  *  *  nu   | 
d3e f2g2 =a4 g2a2 a8 b3a g2f2 e2d2  | \
w:  *  *  *  *  *  e ze lî den   | 
z2a2 g2f2 f3e e2ed d8 g2_7/8a_1/4b agf2 _1/4e2f2  | 
w:  in *  *  *  *  *  *  *  ler   SAZ  | 
gf_1/4ed cdef g4 f2g2 g8 f2g2 a2{b}ag g3f  | \
w:  *  *  *  *  *  *  *  *  *  Bir_ a çık  yâ  | 
f3e e2d2 d3g g2{a}gf f3e e2{f}ed d6c2 d3/2f/ed  | 
w:  *  *  *  *  *  *  re *  ye  *  dok *  *  *  *  *  tor   | 
d2_1/4e2 f2g6 f2g2 g3f f3e e3d d3c c4  | \
w:  *  *  *  *  vu ru lur  *  *  *  mu   | 
(3B2c2d2 (3e2d2c2 B3A A2{B}AG G8 g2_7/8a_1/4b agf2 _1/4e2f2  | 
w:  neş *  *  *  *  *  *  *  *  *  *  *  ter   SAZ  | 
gf_1/4ed cdef g4 f2g2 g8 f2g2 a2{b}ag g3f  | \
w:  *  *  *  *  *  *  *  *  *  Bir_ a çık  yâ  | 
f3e e2d2 d3g g2{a}gf f3e e2{f}ed d6c2 d3/2f/ed  | 
w:  *  *  *  *  *  *  re *  ye  *  dok *  *  *  *  *  tor   | 
d2_1/4e2 f2g6 f2g2 g3f f3e e3d d3c c4  | \
w:  *  *  *  *  vu ru lur  *  *  *  mu   | 
(3B2c2d2 (3e2d2c2 B3A A2{B}AG G8 |
w:  neş *  *  *  *  *  *  *  *  *  *  *  ter    | 


